public/library/pytest-cobra-icon-light.svg

<svg xmlns="http://www.w3.org/2000/svg" width="1500" height="1500" viewBox="0 0 1500 1500"><path fill="#696969" d="M521.576 213.75h431.04c11.667 0 21.125 9.458 21.125 21.125S964.283 256 952.616 256h-431.04c-11.667 0-21.125-9.458-21.125-21.125s9.458-21.125 21.125-21.125"/><path fill="#009fe3" d="M525.333 171H612v20h-86.667z"/><path fill="#c7d302" d="M638.667 171h86.666v20h-86.666z"/><path fill="#f07e16" d="M750.5 171h86.667v20H750.5z"/><path fill="#df2815" d="M861.861 171h86.667v20h-86.667zM861.861 278h86.667v146.5h-86.667z"/><path fill="#f07e16" d="M750.5 278h86.828v238H750.5z"/><path fill="#c7d302" d="M638.667 278h86.661v356.5h-86.661z"/><path fill="#009fe3" d="M525.333 278H612v434.5h-86.667z"/><path fill="#696969" d="M252.959 1173.846q-12.82 0-23.249-2.825-10.43-2.825-18.796-7.496t-14.775-10.973q-6.41-6.302-11.407-13.255h-2.608q.652 7.388 1.304 14.124.434 5.649.869 11.625.435 5.975.435 9.452v101.906h-39.546V930.921h32.158l5.649 32.158h1.739q4.997-7.605 11.298-14.232t14.667-11.516 18.795-7.822q10.43-2.934 23.467-2.934 20.425 0 37.156 7.822 16.731 7.823 28.573 23.359t18.36 38.568 6.519 53.452q0 30.637-6.519 53.778-6.518 23.141-18.36 38.785-11.842 15.645-28.573 23.576t-37.156 7.931m-7.605-214.461q-16.514 0-27.921 4.998-11.408 4.997-18.469 15.21-7.062 10.212-10.43 25.422t-3.802 35.852v8.909q0 21.946 2.933 39.003t9.995 28.681 18.795 17.6q11.734 5.976 29.334 5.976 29.333 0 43.131-23.684 13.797-23.685 13.797-68.011 0-45.195-13.797-67.575t-43.566-22.381M370.293 930.921h41.067l46.716 133.196q3.042 8.691 6.193 18.252t5.867 19.121 4.671 18.469q1.956 8.909 2.825 16.514h1.304q1.086-5.432 3.476-14.776t5.324-19.881q2.933-10.539 6.084-20.751t5.54-17.383l43.24-132.761h40.85l-94.302 269.651q-6.084 17.6-13.146 31.615-7.061 14.015-16.405 23.792-9.343 9.778-21.946 15.102-12.602 5.323-29.985 5.323-11.299 0-19.556-1.195-8.256-1.195-14.123-2.499v-31.506q4.563 1.087 11.516 1.847 6.953.761 14.558.761 10.43 0 18.035-2.499t13.254-7.279 9.669-11.734 7.279-15.862l12.386-34.765z"/><path fill="#009fe3" d="M695.568 1141.47q3.911 0 8.8-.434 4.889-.435 9.452-1.087t8.366-1.521 5.758-1.521v29.986q-2.825 1.303-7.171 2.607-4.345 1.304-9.56 2.281t-10.864 1.521q-5.65.544-11.082.544-13.472 0-24.988-3.477t-19.881-11.951q-8.366-8.474-13.146-22.923-4.78-14.45-4.78-36.395V960.689h-33.68v-17.6l33.68-16.948 16.948-49.976h22.815v54.756h59.971v29.768h-59.971V1099.1q0 21.076 6.844 31.723t22.489 10.647M868.527 1173.846q-23.901 0-43.674-8.04t-34.005-23.467-22.055-38.242q-7.822-22.815-7.822-52.148 0-29.551 7.171-52.801 7.17-23.249 20.207-39.437t31.18-24.662q18.144-8.474 40.09-8.474 21.511 0 38.676 7.714 17.166 7.713 29.117 21.728 11.95 14.015 18.36 33.68t6.41 43.565v24.553H801.821q1.086 41.936 17.708 61.709 16.623 19.773 49.433 19.773 11.081 0 20.533-1.086t18.252-3.151 17.057-5.215 16.731-7.061v35.2q-8.691 4.128-17.057 7.17t-17.165 4.998-18.252 2.825-20.534.869m-9.778-214.461q-24.77 0-39.22 16.948-14.449 16.949-16.839 49.324h106.904q0-14.775-2.933-27.052-2.934-12.276-9.126-20.968-6.193-8.691-15.753-13.471-9.561-4.781-23.033-4.781M1155.126 1104.097q0 17.383-6.301 30.42t-18.143 21.837-28.573 13.146-37.591 4.346q-23.684 0-40.632-3.803t-29.768-11.19v-36.069q6.736 3.476 14.993 6.844t17.383 5.976q9.126 2.607 18.795 4.237t19.229 1.629q14.124 0 24.01-2.39t16.08-6.844q6.192-4.455 9.017-10.865t2.825-14.232q0-6.736-2.173-12.168t-7.931-10.755-15.753-10.756-25.64-12.168-28.138-13.254q-12.494-6.519-21.186-14.559t-13.363-18.577q-4.671-10.539-4.671-25.097 0-15.21 5.975-27.052t16.84-19.881 26.074-12.168 33.896-4.129q21.077 0 38.568 4.563 17.492 4.563 33.136 11.951l-13.689 31.941q-14.123-6.301-29.007-10.973t-30.311-4.672q-22.164 0-32.811 7.279t-10.646 20.751q0 7.605 2.498 13.254 2.499 5.65 8.583 10.647 6.084 4.998 16.296 10.104t25.423 11.408q15.644 6.518 27.921 13.037 12.277 6.518 20.968 14.666t13.254 18.578 4.563 24.988M1285.28 1141.47q3.911 0 8.8-.434 4.889-.435 9.452-1.087t8.366-1.521 5.758-1.521v29.986q-2.825 1.303-7.171 2.607-4.345 1.304-9.56 2.281t-10.865 1.521q-5.649.544-11.081.544-13.472 0-24.988-3.477t-19.882-11.951-13.145-22.923q-4.781-14.45-4.781-36.395V960.689h-33.679v-17.6l33.679-16.948 16.949-49.976h22.815v54.756h59.97v29.768h-59.97V1099.1q0 21.076 6.844 31.723t22.489 10.647"/></svg>

<?xml version="1.0" encoding="UTF-8"?>
<!DOCTYPE svg PUBLIC "-//W3C//DTD SVG 1.1//EN" "http://www.w3.org/Graphics/SVG/1.1/DTD/svg11.dtd">
<svg version="1.1" xmlns="http://www.w3.org/2000/svg" xmlns:xlink="http://www.w3.org/1999/xlink" x="0" y="0" width="1500" height="1500" viewBox="0, 0, 1500, 1500">
  <g id="pytest_logo">
    <g id="graphics">
      <path d="M521.576,213.75 L952.616,213.75 C964.283,213.75 973.741,223.208 973.741,234.875 L973.741,234.875 C973.741,246.542 964.283,256 952.616,256 L521.576,256 C509.909,256 500.451,246.542 500.451,234.875 L500.451,234.875 C500.451,223.208 509.909,213.75 521.576,213.75 z" fill="#696969" id="horizontal_bar"/>
      <g id="top_bars">
        <path d="M525.333,171 L612,171 L612,191 L525.333,191 L525.333,171 z" fill="#009FE3"/>
        <path d="M638.667,171 L725.333,171 L725.333,191 L638.667,191 L638.667,171 z" fill="#C7D302"/>
        <path d="M750.5,171 L837.167,171 L837.167,191 L750.5,191 L750.5,171 z" fill="#F07E16"/>
        <path d="M861.861,171 L948.528,171 L948.528,191 L861.861,191 L861.861,171 z" fill="#DF2815"/>
      </g>
      <g id="bottom_bars">
        <path d="M861.861,278 L948.528,278 L948.528,424.5 L861.861,424.5 L861.861,278 z" fill="#DF2815"/>
        <path d="M750.5,278 L837.328,278 L837.328,516 L750.5,516 L750.5,278 z" fill="#F07E16"/>
        <path d="M638.667,278 L725.328,278 L725.328,634.5 L638.667,634.5 L638.667,278 z" fill="#C7D302"/>
        <path d="M525.333,278 L612,278 L612,712.5 L525.333,712.5 L525.333,278 z" fill="#009FE3"/>
      </g>
    </g>
    <g id="pytest">
      <path d="M252.959,1173.846 Q240.139,1173.846 229.71,1171.021 Q219.28,1168.196 210.914,1163.525 Q202.549,1158.853 196.139,1152.552 Q189.729,1146.25 184.732,1139.297 L182.124,1139.297 Q182.776,1146.685 183.428,1153.421 Q183.862,1159.07 184.297,1165.046 Q184.732,1171.021 184.732,1174.498 L184.732,1276.404 L145.186,1276.404 L145.186,930.921 L177.344,930.921 L182.993,963.079 L184.732,963.079 Q189.729,955.474 196.03,948.847 Q202.332,942.22 210.697,937.331 Q219.063,932.442 229.492,929.509 Q239.922,926.575 252.959,926.575 Q273.384,926.575 290.115,934.397 Q306.846,942.22 318.688,957.756 Q330.53,973.292 337.048,996.324 Q343.567,1019.356 343.567,1049.776 Q343.567,1080.413 337.048,1103.554 Q330.53,1126.695 318.688,1142.339 Q306.846,1157.984 290.115,1165.915 Q273.384,1173.846 252.959,1173.846 z M245.354,959.385 Q228.84,959.385 217.433,964.383 Q206.025,969.38 198.964,979.593 Q191.902,989.805 188.534,1005.015 Q185.166,1020.225 184.732,1040.867 L184.732,1049.776 Q184.732,1071.722 187.665,1088.779 Q190.598,1105.835 197.66,1117.46 Q204.722,1129.085 216.455,1135.06 Q228.189,1141.036 245.789,1141.036 Q275.122,1141.036 288.92,1117.352 Q302.717,1093.667 302.717,1049.341 Q302.717,1004.146 288.92,981.766 Q275.122,959.385 245.354,959.385 z" fill="#696969"/>
      <path d="M370.293,930.921 L411.36,930.921 L458.076,1064.117 Q461.118,1072.808 464.269,1082.369 Q467.42,1091.929 470.136,1101.49 Q472.852,1111.05 474.807,1119.959 Q476.763,1128.868 477.632,1136.473 L478.936,1136.473 Q480.022,1131.041 482.412,1121.697 Q484.802,1112.354 487.736,1101.816 Q490.669,1091.277 493.82,1081.065 Q496.97,1070.853 499.36,1063.682 L542.6,930.921 L583.45,930.921 L489.148,1200.572 Q483.064,1218.172 476.002,1232.187 Q468.941,1246.202 459.597,1255.979 Q450.254,1265.757 437.651,1271.081 Q425.049,1276.404 407.666,1276.404 Q396.367,1276.404 388.11,1275.209 Q379.854,1274.014 373.987,1272.71 L373.987,1241.204 Q378.55,1242.291 385.503,1243.051 Q392.456,1243.812 400.061,1243.812 Q410.491,1243.812 418.096,1241.313 Q425.701,1238.814 431.35,1234.034 Q437,1229.253 441.019,1222.3 Q445.039,1215.347 448.298,1206.438 L460.684,1171.673 z" fill="#696969"/>
      <path d="M695.568,1141.47 Q699.479,1141.47 704.368,1141.036 Q709.257,1140.601 713.82,1139.949 Q718.383,1139.297 722.186,1138.428 Q725.988,1137.559 727.944,1136.907 L727.944,1166.893 Q725.119,1168.196 720.773,1169.5 Q716.428,1170.804 711.213,1171.781 Q705.998,1172.759 700.349,1173.302 Q694.699,1173.846 689.267,1173.846 Q675.795,1173.846 664.279,1170.369 Q652.763,1166.893 644.398,1158.418 Q636.032,1149.944 631.252,1135.495 Q626.472,1121.045 626.472,1099.1 L626.472,960.689 L592.792,960.689 L592.792,943.089 L626.472,926.141 L643.42,876.165 L666.235,876.165 L666.235,930.921 L726.206,930.921 L726.206,960.689 L666.235,960.689 L666.235,1099.1 Q666.235,1120.176 673.079,1130.823 Q679.924,1141.47 695.568,1141.47 z" fill="#009FE3"/>
      <path d="M868.527,1173.846 Q844.626,1173.846 824.853,1165.806 Q805.08,1157.767 790.848,1142.339 Q776.616,1126.912 768.793,1104.097 Q760.971,1081.282 760.971,1051.949 Q760.971,1022.398 768.142,999.148 Q775.312,975.899 788.349,959.711 Q801.386,943.523 819.529,935.049 Q837.673,926.575 859.619,926.575 Q881.13,926.575 898.295,934.289 Q915.461,942.002 927.412,956.017 Q939.362,970.032 945.772,989.697 Q952.182,1009.361 952.182,1033.262 L952.182,1057.815 L801.821,1057.815 Q802.907,1099.751 819.529,1119.524 Q836.152,1139.297 868.962,1139.297 Q880.043,1139.297 889.495,1138.211 Q898.947,1137.125 907.747,1135.06 Q916.547,1132.996 924.804,1129.845 Q933.061,1126.695 941.535,1122.784 L941.535,1157.984 Q932.844,1162.112 924.478,1165.154 Q916.113,1168.196 907.313,1170.152 Q898.513,1172.107 889.061,1172.977 Q879.609,1173.846 868.527,1173.846 z M858.749,959.385 Q833.979,959.385 819.529,976.333 Q805.08,993.282 802.69,1025.657 L909.594,1025.657 Q909.594,1010.882 906.661,998.605 Q903.727,986.329 897.535,977.637 Q891.342,968.946 881.782,964.166 Q872.221,959.385 858.749,959.385 z" fill="#009FE3"/>
      <path d="M1155.126,1104.097 Q1155.126,1121.48 1148.825,1134.517 Q1142.524,1147.554 1130.682,1156.354 Q1118.84,1165.154 1102.109,1169.5 Q1085.378,1173.846 1064.518,1173.846 Q1040.834,1173.846 1023.886,1170.043 Q1006.938,1166.241 994.118,1158.853 L994.118,1122.784 Q1000.854,1126.26 1009.111,1129.628 Q1017.368,1132.996 1026.494,1135.604 Q1035.62,1138.211 1045.289,1139.841 Q1054.958,1141.47 1064.518,1141.47 Q1078.642,1141.47 1088.528,1139.08 Q1098.415,1136.69 1104.608,1132.236 Q1110.8,1127.781 1113.625,1121.371 Q1116.45,1114.961 1116.45,1107.139 Q1116.45,1100.403 1114.277,1094.971 Q1112.104,1089.539 1106.346,1084.216 Q1100.588,1078.892 1090.593,1073.46 Q1080.598,1068.028 1064.953,1061.292 Q1049.308,1054.556 1036.815,1048.038 Q1024.321,1041.519 1015.629,1033.479 Q1006.938,1025.44 1002.266,1014.902 Q997.595,1004.363 997.595,989.805 Q997.595,974.595 1003.57,962.753 Q1009.545,950.911 1020.41,942.872 Q1031.274,934.832 1046.484,930.704 Q1061.694,926.575 1080.38,926.575 Q1101.457,926.575 1118.948,931.138 Q1136.44,935.701 1152.084,943.089 L1138.395,975.03 Q1124.272,968.729 1109.388,964.057 Q1094.504,959.385 1079.077,959.385 Q1056.913,959.385 1046.266,966.664 Q1035.62,973.943 1035.62,987.415 Q1035.62,995.02 1038.118,1000.669 Q1040.617,1006.319 1046.701,1011.316 Q1052.785,1016.314 1062.997,1021.42 Q1073.21,1026.526 1088.42,1032.828 Q1104.064,1039.346 1116.341,1045.865 Q1128.618,1052.383 1137.309,1060.531 Q1146,1068.68 1150.563,1079.109 Q1155.126,1089.539 1155.126,1104.097 z" fill="#009FE3"/>
      <path d="M1285.28,1141.47 Q1289.191,1141.47 1294.08,1141.036 Q1298.969,1140.601 1303.532,1139.949 Q1308.095,1139.297 1311.898,1138.428 Q1315.7,1137.559 1317.656,1136.907 L1317.656,1166.893 Q1314.831,1168.196 1310.485,1169.5 Q1306.14,1170.804 1300.925,1171.781 Q1295.71,1172.759 1290.06,1173.302 Q1284.411,1173.846 1278.979,1173.846 Q1265.507,1173.846 1253.991,1170.369 Q1242.475,1166.893 1234.109,1158.418 Q1225.744,1149.944 1220.964,1135.495 Q1216.183,1121.045 1216.183,1099.1 L1216.183,960.689 L1182.504,960.689 L1182.504,943.089 L1216.183,926.141 L1233.132,876.165 L1255.947,876.165 L1255.947,930.921 L1315.917,930.921 L1315.917,960.689 L1255.947,960.689 L1255.947,1099.1 Q1255.947,1120.176 1262.791,1130.823 Q1269.636,1141.47 1285.28,1141.47 z" fill="#009FE3"/>
    </g>
  </g>
</svg>
